!!!!SEGMENT: pl-kk--kk-i-1--055-004_anonim--missa-dominicale-agnus-dei.krn
!!!cenid: 15xx:778
!!!COM: Anonim
!!!COM-rismid: pe30004985
!!!CDT:
!!!CNT:
!!!OPR: [Missa] Dominicale
!!!OTL: Agnus Dei
!!!OMV: 005
!!!PDT:
!!!AGN:
!!!SMS-siglum: PL-Kk
!!!SMS-shelfmark: Kk.I.1
!!!SMS-shelfwork: 055-005 M
!!!SMS-variant:
!!!SMS-altvar:
!!!NIFC-rismid: 300258009
!!!URL-scan: http://repozytorium.nifc.pl/skany/pl-kk-nut--i-1
!!!ONB-nifc: UWAGA: Cantus (s. 166r-173v, skan 0168-0176), Altus (s. 162v-170r, skan 0356-0363), Tenor (s. 141r-146r, skan 0531-0536), Bassus (s. 152r-159v, skan 0714-0722). Części Mszy: 1. Kyrie, 2. Et in terra, 3. Sanctus, 4. Agnus Dei
!!!key: d
**kern	**text	**kern	**text	**text	**kern	**text	**text	**kern	**text	**text
*part4	*part4	*part3	*part3	*part3	*part2	*part2	*part2	*part1	*part1	*part1
*staff4	*staff4	*staff3	*staff3	*staff3	*staff2	*staff2	*staff2	*staff1	*staff1	*staff1
*I"BASSVS	*	*I"TENOR	*	*	*I"ALTVS	*	*	*I"CANTVS	*	*
*I'B	*	*I'T	*	*	*I'A	*	*	*I'S	*	*
*ICvox	*	*ICvox	*	*	*ICvox	*	*	*ICvox	*	*
*Ibass	*	*Itenor	*	*	*Ialto	*	*	*Isoprn	*	*
*clefF3	*	*clefC3	*	*	*clefC3	*	*	*clefC2	*	*
*k[b-]	*	*k[b-]	*	*	*k[b-]	*	*	*k[b-]	*	*
*d:	*	*d:	*	*	*d:	*	*	*d:	*	*
*yyM2/1	*	*yyM2/1	*	*	*M2/1	*	*	*yyM2/1	*	*
*yymet(C|)	*	*yymet(C|)	*	*	*met(C|)	*	*	*yyM2/1	*	*
=1	=1	=1	=1	=1	=1	=1	=1	=1	=1	=1
!LO:TX:t=P:sześciolinia:problem	!	!LO:TX:t=P:sześciolinia:problem	!	!	!	!	!	!	!	!
*	*	*lig	*	*	*	*	*	*	*	*
!LO:TX:t=P:problem=Bassus w kluczu barytonowym	!	!LO:TX:t=P:problem=Tenor w kluczu altowym	!	!	!LO:TX:t=P:sześciolinia:problem	!	!	!LO:TX:t=P:sześciolinia:problem	!	!
!	!	!	!	!	!	!	!	!LO:TX:t=P:problem= Cantus w kluczu mezzosopranowym	!	!
1.G	A-	1G	A-	.	2.B-\	A-	.	2.d\	A-	.
.	.	.	.	.	4c\	-gnus	.	8e\L	-gnus.	.
.	.	.	.	.	.	.	.	8f\J	.	.
.	.	1B-	.	.	1d	De-	.	4g\	.	.
.	.	.	.	.	.	.	.	4d\	.	.
2G\	-gnus	.	.	.	.	.	.	1g	.	.
*	*	*Xlig	*	*	*	*	*	*	*	*
=2	=2	=2	=2	=2	=2	=2	=2	=2	=2	=2
*lig	*	*	*	*	*	*	*	*	*	*
1D	De-	1A	.	.	2d\	-j	.	.	.	.
!	!	!	!	!	!	!	!	!LO:TX:t=P:problem=# above	!	!
.	.	.	.	.	2d\	qui	.	2f#X\	De-	.
1E-X	.	1G	.	.	2B-\	tol-	.	2g\	-i	.
.	.	.	.	.	2c/	-lis	.	2G/	.	.
*Xlig	*	*	*	*	*	*	*	*	*	*
=3	=3	=3	=3	=3	=3	=3	=3	=3	=3	=3
1D	-i	1F	.	.	2d\	pec-	.	2.A/	.	.
.	.	.	.	.	2f\	-ca-	.	.	.	.
.	.	.	.	.	.	.	.	4B-/	.	.
2C/	qui	1G,	-gnus	.	2e-X\	-ta	.	2c/	.	.
!LO:TX:t=P:problem=# below	!	!	!	!	!	!	!	!	!	!
!LO:N:acc=#	!	!	!	!	!	!	!	!	!	!
2BBn/	.	.	.	.	2d\	mun-	.	2d/	.	.
=4	=4	=4	=4	=4	=4	=4	=4	=4	=4	=4
*	*	*lig	*	*	*	*	*	*	*	*
1C	tol-	1G	De-	.	1c	   di	.	1e-X	.	.
2GG/	-lis	1B-	.	.	2r	.	.	1d	.	.
*	*	*	*	*	*	*ij	*	*	*	*
2G\	.	.	.	.	2B-/	A-	.	.	.	.
*	*	*Xlig	*	*	*	*	*	*	*	*
=5	=5	=5	=5	=5	=5	=5	=5	=5	=5	=5
2F\	.	1c	.	.	2A/	-gnus	.	2r	.	.
2E\	.	.	.	.	2G/	De-	.	2g\	a-	.
*	*	*lig	*	*	*	*	*	*	*	*
2D/	.	1d	.	.	2F/	-j	.	2f\	.	.
1G	a-	.	.	.	2B-\	qui	.	2g\	-gnus	.
=6	=6	=6	=6	=6	=6	=6	=6	=6	=6	=6
.	.	1e-X	.	.	2B-\	tol-	.	2b-\	.	.
2A\	-gnus	.	.	.	2c\	-lis	.	4a\	De-	.
.	.	.	.	.	.	.	.	4g\	.	.
*lig	*	*Xlig	*	*	*	*	*	*	*	*
1B-	De-	1d	.	.	2d\	pec-	.	1f	-i	.
.	.	.	.	.	1B-	ca -	.	.	.	.
=7	=7	=7	=7	=7	=7	=7	=7	=7	=7	=7
1F	.	1c	.	.	.	.	.	2r	.	.
.	.	.	.	.	2A/	   ta	.	2f\	qui	.
*Xlig	*	*	*	*	*	*	*	*	*	*
!	!	!	!	!	!LO:SIC:v:t=custos F	!	!	!	!	!
2BB-/	-i	1d,	-i	.	1B-	mun-	.	2f\	tol-	.
2BB-/	q(ui)	.	.	.	.	.	.	2f\	-lis	.
!	!	!	!	!	!LO:LB:g=original	!	!	!	!	!
=8	=8	=8	=8	=8	=8	=8	=8	=8	=8	=8
1BB-	tol-	1d	qui	.	2F/	-di	.	2f\	pec-	.
*	*	*	*	*	*	*Xij	*	*	*	*
.	.	.	.	.	2.B-\	mun-	.	2.f\	-ca-	.
2A\	-lis	1c	.	.	.	.	.	.	.	.
!	!	!	!	!	!	!	!	!LO:SIC:v:t=custos f	!	!
.	.	.	.	.	8A/L	.	.	4f\	-ta	.
.	.	.	.	.	8G/J	.	.	.	.	.
!LO:SIC:v:t=custos G	!	!	!	!	!	!	!	!	!	!
!	!	!	!	!	!	!	!	!LO:LB:g=original	!	!
2A\	pec-	.	.	.	2A/	.	.	2f\	mu(n)-	.
!LO:LB:g=original	!	!	!	!	!	!	!	!	!	!
=9	=9	=9	=9	=9	=9	=9	=9	=9	=9	=9
1G	-ca-	1B-	.	.	2B-\	-di	.	2d\	  di	.
.	.	.	.	.	2d\	pec-	.	2g\	pec-	.
*	*	*lig	*	*	*	*	*	*	*	*
2.C/	-ta	1c	tol-	.	2.e-X\	-ca-	.	2.g\	-ca-	.
4D/	mun-	.	.	.	4d\	.	.	4f\	-ta	.
=10	=10	=10	=10	=10	=10	=10	=10	=10	=10	=10
1E-X	.	1G	.	.	2c/	.	.	1e-X	mu(n)-	.
.	.	.	.	.	2B-/	-ta	.	.	.	.
*	*	*Xlig	*	*	*	*	*	*	*	*
1BB-	-di	1B-	.	.	1f	mun-	.	2d\	-di	.
.	.	.	.	.	.	.	.	2d\	q(ui)	.
=11	=11	=11	=11	=11	=11	=11	=11	=11	=11	=11
2r	.	1A	.	.	2c/	-di	.	2e\	tol-	.
*	*	*	*	*	*	*ij	*	*	*	*
1D	q(ui)	.	.	.	2d\	pec-	.	2f\	-lis	.
.	.	1F	.	.	2A/	-ca-	.	1d	pec-	.
1BB-	tol-	.	.	.	2B-/	-ta	.	.	.	.
=12	=12	=12	=12	=12	=12	=12	=12	=12	=12	=12
.	.	1D	.	.	2F/	mun-	.	1B-	-ca-	.
2GG/	-lis	.	.	.	2G/	.	.	.	.	.
*	*	*lig	*	*	*	*	*	*	*	*
2D/	pec-	1F	.	.	2A/	-di	.	2A/	-ta	.
2BB-/	-ca-	.	.	.	2d\	pec-	.	2B-/	mu(n)-	.
=13	=13	=13	=13	=13	=13	=13	=13	=13	=13	=13
1C	-ta	1E	.	.	2.c/	-ca-	.	1G	-di	.
.	.	.	.	.	4B-/	-ta	.	.	.	.
*	*	*Xlig	*	*	*	*	*	*	*ij	*
1D	mu(n)-	1F	.	.	1A	mun-	.	2r	.	.
.	.	.	.	.	.	.	.	2d\	q(ui)	.
=14	=14	=14	=14	=14	=14	=14	=14	=14	=14	=14
1GG	-di	1G,	-lis	.	2G/	-di	.	2d\	tol-	.
*	*	*	*	*	*	*Xij	*	*	*	*
.	.	.	.	.	2B-/	pec-	.	2d\	-lis	.
2r	.	1D	pec-	.	2A/	-ca-	.	2f\	pec-	.
!	!	!	!	!	!LO:SIC:v:t=custos A	!	!	!	!	!
2D/	pec-	.	.	.	2A/	-ta	.	2.f\	-ca-	.
!	!	!	!	!	!LO:LB:g=original	!	!	!	!	!
=15	=15	=15	=15	=15	=15	=15	=15	=15	=15	=15
*	*	*lig	*	*	*	*	*	*	*	*
2D/	-ca-	1F	-ca-	.	2.A/	mun-	.	.	.	.
.	.	.	.	.	.	.	.	4d\	-ta	.
2D/	-ta	.	.	.	.	.	.	1f	mu(n)-	.
.	.	.	.	.	4B-/	.	.	.	.	.
0C	mun-	1G	.	.	0c	.	.	.	.	.
.	.	.	.	.	.	.	.	4e\	.	.
.	.	.	.	.	.	.	.	4d\	.	.
*	*	*Xlig	*	*	*	*	*	*	*	*
=16	=16	=16	=16	=16	=16	=16	=16	=16	=16	=16
*	*	*lig	*	*	*	*	*	*	*	*
.	.	1G	-ta	.	.	.	.	1e	.	.
!	!	!	!	!	!	!	!	!LO:SIC:v:t=custos g	!	!
2FF/	-di	1F,	.	.	1A	-di	.	2f\	-di	.
*	*ij	*	*	*	*	*	*	*	*Xij	*
!	!	!	!	!	!	!	!	!LO:LB:g=original	!	!
1F	pec-	.	.	.	.	.	.	2a\	pec-	.
*	*	*Xlig	*	*	*	*	*	*	*	*
!	!	!	!	!	!	!	!	!LO:LB:g=original	!	!
=17	=17	=17	=17	=17	=17	=17	=17	=17	=17	=17
.	.	1G	mun-	.	1.c	mi-	Do-	2g\	-ca-	.
2E\	.	.	.	.	.	.	.	2g\	-ta	.
!LO:SIC:v:t=custos BB-	!	!	!	!	!	!	!	!	!	!
1F	-ca-	1A	.	.	.	.	.	1f	mu(n)-	.
.	.	.	.	.	2c\	-ſe-	-na	.	.	.
!LO:LB:g=original	!	!	!	!	!	!	!	!	!	!
=18	=18	=18	=18	=18	=18	=18	=18	=18	=18	=18
*lig	*	*lig	*	*	*	*	*	*	*	*
1BB-	-ta	1B-	.	.	2d\	-re-	no-	2f\	-di	.
.	.	.	.	.	2d\	-re	-bis	1f	mi-	do-
1C	.	1G	.	.	2.c/	no-	pa-	.	.	.
.	.	.	.	.	.	.	.	2e-X\	-se-	-na
.	.	.	.	.	4B-/	.	.	.	.	.
*Xlig	*	*Xlig	*	*	*	*	*	*	*	*
=19	=19	=19	=19	=19	=19	=19	=19	=19	=19	=19
1D	mun-	1F	.	.	1A	.	.	2d\	-re-	no-
.	.	.	.	.	.	.	.	2d\	-re	-b(is)
2GG/	-di	1G,	-di	.	1B-	-bis	-cem	2.d\	no-	pa-
*	*Xij	*	*	*	*	*	*	*	*	*
1G	mi-	.	.	.	.	.	.	.	.	.
.	.	.	.	.	.	.	.	4c/	-bis	-cem
=20	=20	=20	=20	=20	=20	=20	=20	=20	=20	=20
.	.	1d	mi-	Do-	2r	.	.	2B-/	.	.
*	*	*	*	*	*	*ij	*ij	*	*	*
2D/	-se-	.	.	.	1f	mi-	Do-	2A/	.	.
*	*	*lig	*	*	*	*	*	*	*ij	*ij
2F\	-re-	1c	-ſe-	-na	.	.	.	1.a	mi-	do-
2F\	-re	.	.	.	2f\	-ſe-	-na	.	.	.
=21	=21	=21	=21	=21	=21	=21	=21	=21	=21	=21
1G	no-	1B-	.	.	1d	-re-	no-	.	.	.
.	.	.	.	.	.	.	.	2g\	-se-	-na
*	*	*Xlig	*	*	*	*	*	*	*	*
0C	-bis	1c	-re-	no-	2e\	-re	-bis	2g\	-re-	no-
.	.	.	.	.	2.f\	no-	pa-	2a\	-re	-b(is)
=22	=22	=22	=22	=22	=22	=22	=22	=22	=22	=22
*	*	*lig	*	*	*	*	*	*	*	*
.	.	1G	-re	-bis	.	.	.	1g	no-	pa-
.	.	.	.	.	8e\L	.	.	.	.	.
.	.	.	.	.	8d\J	.	.	.	.	.
.	.	.	.	.	2e\	.	.	.	.	.
!	!	!LO:SIC:v:t=custos A	!	!	!	!	!	!	!	!
2.BB-/	no-	1B-	.	.	2f\	-bis	-cem	2d\	-bis	-cem
*	*	*	*	*	*	*Xij	*Xij	*	*	*
.	.	.	.	.	2.d\	mi-	.	1g	mi-	do-
4C/	.	.	.	.	.	.	.	.	.	.
*	*	*Xlig	*	*	*	*	*	*	*	*
!	!	!LO:LB:g=original	!	!	!	!	!	!	!	!
=23	=23	=23	=23	=23	=23	=23	=23	=23	=23	=23
*	*	*lig	*	*	*	*	*	*	*	*
0D	.	1A	.	.	.	.	.	.	.	.
.	.	.	.	.	4d\	-ſe-	.	.	.	.
.	.	.	.	.	2d\	-re-	.	2f\	-se-	-na
!	!	!	!	!	!LO:SIC:v:t=custos B-	!	!	!	!	!
.	.	1F	.	.	1A	-re	.	2d\	-re-	no-
.	.	.	.	.	.	.	.	2d\	-re	-b(is)
*	*	*Xlig	*	*	*	*	*	*	*	*
!	!	!	!	!	!LO:LB:g=original	!	!	!	!	!
=24	=24	=24	=24	=24	=24	=24	=24	=24	=24	=24
2GG/	-bis	1D	.	.	2B-/	no-	.	2g\	no-	pa-
*	*ij	*	*	*	*	*	*	*	*	*
1D	mi-	.	.	.	2A/	-bis	.	2f\	-bis	-cem
*	*	*lig	*	*	*	*ij	*	*	*	*
.	.	1F	no-	pa ­	2.A/	mi-	.	2.f\	mi-	do-
2D/	-se-	.	.	.	.	.	.	.	.	.
.	.	.	.	.	4A/	-ſe-	.	4f\	-se-	-na
=25	=25	=25	=25	=25	=25	=25	=25	=25	=25	=25
2.C/	-re-	1E	.	­	1.c	-re-	.	2g\	-re-	no-
!	!	!	!	!	!	!	!	!LO:SIC:v:t=custos a	!	!
.	.	.	.	.	.	.	.	2g\	-re	-b(is)
4BB-/	-re	.	.	.	.	.	.	.	.	.
*	*	*Xlig	*	*	*	*	*	*	*	*
!	!	!	!	!	!	!	!	!LO:LB:g=original	!	!
1AA	no-	1F	.	.	.	.	.	1a	no-	pa-
.	.	.	.	.	2c\	-re	.	.	.	.
=26	=26	=26	=26	=26	=26	=26	=26	=26	=26	=26
1GG	-bis	[0G;l	-bis	­ cem.	1B-	no-	.	1d	-bis	-cem
1.E-X	mi-	.	.	.	2G/	-bis	.	1r	.	.
*	*	*	*	*	*	*Xij	*	*	*Xij	*Xij
.	.	.	.	.	2B-/	mi-	.	.	.	.
=27	=27	=27	=27	=27	=27	=27	=27	=27	=27	=27
.	.	0G_	.	.	2c/	-ſe-	.	2r	.	.
2D/	-se-	.	.	.	2d\	-re-	.	2B-/	mi-	do-
2C/	-re-	.	.	.	2e-X\	-re	.	2c/	-se-	-na
2BB-/	-re	.	.	.	2.d\	no-	.	2d/	-re-	no-
=28	=28	=28	=28	=28	=28	=28	=28	=28	=28	=28
1C	no-	0G_	.	.	.	.	.	2e-X\	-re	-b(is)
.	.	.	.	.	4c/	.	.	.	.	.
.	.	.	.	.	1c	.	.	2e-\	no-	pa-
!	!	!	!	!	!	!	!	!LO:TX:t=P:problem= w źródle 0 bez kropki	!	!
!LO:TX:t=P:problem= w źródle 0 bez kropki	!	!	!	!	!	!	!	!LO:N:vis=0	!	!
!LO:N:vis=0	!	!	!	!	!	!	!	!	!	!
0.GG	-bis	.	.	.	.	.	.	0.d	-bis	-cem
.	.	.	.	.	4B-/	.	.	.	.	.
*	*Xij	*	*	*	*	*	*	*	*	*
.	.	.	.	.	4A/	.	.	.	.	.
=29	=29	=29	=29	=29	=29	=29	=29	=29	=29	=29
!	!	!	!	!	!LO:N:acc=#	!	!	!	!	!
.	.	0G]	.	.	0Bn	-bis	.	.	.	.
=30||	=30||	=30||	=30||	=30||	=30||	=30||	=30||	=30||	=30||	=30||
*yyM2/1	*	*yyM2/1	*	*	*M2/1	*	*	*yyM2/1	*	*
*yymet(C|)	*	*yymet(C|)	*	*	*met(C|)	*	*	*yyM2/1	*	*
1.G	A-	1G	A-	.	2.B-\	A-	.	1.d	A-	.
.	.	.	.	.	4c\	.	.	.	.	.
.	.	1B-	-gnus	.	2d\	.	.	.	.	.
2G\	-gnus	.	.	.	1B-	-gnus	.	2d\	-gnus	.
=31	=31	=31	=31	=31	=31	=31	=31	=31	=31	=31
*	*	*lig	*	*	*	*	*	*	*	*
1F	De-	1c	.	.	.	.	.	1f	De-	.
.	.	.	.	.	2A/	De-	.	.	.	.
!	!	!LO:TX:t=P:problem=druga nuta ligatury zaczerniona i z dziubkiem nad - raczej nie jako poprawka wysokości, bo nie ma tu dysonansu żadnego	!	!	!	!	!	!	!	!
2BB-/	-i	1d,	.	.	1B-	-j	.	2f\	-i	.
2BB-/	q(ui)	.	.	.	.	.	.	2f\	qui	.
*	*	*Xlig	*	*	*	*	*	*	*	*
=32	=32	=32	=32	=32	=32	=32	=32	=32	=32	=32
2BB-/	tol-	1d	De-	.	1B-	qui	.	2f\	tol-	.
2BB-/	-lis	.	.	.	.	.	.	2f\	-lis	.
2F\	pec-	1c,	-i	.	2A/	tol-	.	2a\	pec-	.
1F	-ca-	.	.	.	2A/	-lis	.	2.a\	-ca-	.
=33	=33	=33	=33	=33	=33	=33	=33	=33	=33	=33
.	.	1A	qui	.	2c\	pec-	.	.	.	.
.	.	.	.	.	.	.	.	4g\	.	.
2F\	-ta	.	.	.	1d	-ca-	.	4f\	.	.
!	!	!	!	!	!	!	!	!LO:SIC:v:t=custos d	!	!
.	.	.	.	.	.	.	.	4e\	.	.
*lig	*	*lig	*	*	*	*	*	*	*	*
!	!	!	!	!	!	!	!	!LO:LB:g=original	!	!
1G	mun-	1B-	tol-	.	.	.	.	2d\	.	.
.	.	.	.	.	2d\	-ta	.	1g	-ta	.
=34	=34	=34	=34	=34	=34	=34	=34	=34	=34	=34
1D	.	1A	.	.	2.d\	mun-	.	.	.	.
.	.	.	.	.	.	.	.	2f#X\	mun-	.
.	.	.	.	.	4c\	.	.	.	.	.
!	!	!	!	!	!	!	!	!LO:TX:t=P:problem=# above	!	!
*Xlig	*	*Xlig	*	*	*	*	*	*	*	*
!	!	!	!	!	!LO:N:acc=#	!	!	!	!	!
2GG/	-di	1G,	-lis	.	2Bn/	.	.	2g\	-di	.
2C/	pec-	.	.	.	2c/	-di	.	2e\	pec-	.
=35	=35	=35	=35	=35	=35	=35	=35	=35	=35	=35
1.D	-ca-	1F	pec-	.	2.A/	mun-	.	2a\	-ca-	.
.	.	.	.	.	.	.	.	2a\	-ta	.
.	.	.	.	.	4A/	-di	.	.	.	.
*	*	*lig	*	*	*	*	*	*	*	*
!	!	!	!	!	!	!	!	!LO:TX:t=P:problem=# below	!	!
.	.	1A	-ca-	.	2.d\	qui	.	1f#X	mu(n)-	.
2D/	-ta	.	.	.	.	.	.	.	.	.
.	.	.	.	.	4c/	tol-	.	.	.	.
=36	=36	=36	=36	=36	=36	=36	=36	=36	=36	=36
2.E-X/	mun-	1G	.	.	2B-\	-lis	.	2g\	-di	.
!	!	!	!	!	!LO:SIC:v:t=custos F	!	!	!	!	!
.	.	.	.	.	2c/	pec-	.	2e-X\	.	.
8D/L	.	.	.	.	.	.	.	.	.	.
8C/J	.	.	.	.	.	.	.	.	.	.
!	!	!	!	!	!LO:LB:g=original	!	!	!	!	!
*	*	*Xlig	*	*	*	*	*	*	*	*
*	*	*lig	*	*	*	*	*	*	*	*
2.BB-/	.	1B-	-ta	.	2F/	-ca-	.	2.d\	.	.
.	.	.	.	.	1G	-ta	.	.	.	.
4C/	.	.	.	.	.	.	.	4e-\	.	.
=37	=37	=37	=37	=37	=37	=37	=37	=37	=37	=37
!	!	!LO:SIC:v:t=custos G	!	!	!	!	!	!	!	!
1D	.	1A	.	.	.	.	.	1d	.	.
.	.	.	.	.	2F#X/	mun-	.	.	.	.
*	*	*Xlig	*	*	*	*	*	*	*	*
!	!	!LO:LB:g=original	!	!	!	!	!	!	!	!
!LO:SIC:v:t=custos E-	!	!	!	!	!	!	!	!	!	!
2GG/	-di	1G	mun-	.	1G	-di	.	1B-	.	.
!LO:LB:g=original	!	!	!	!	!	!	!	!	!	!
1E-X	mi-	.	.	.	.	.	.	.	.	.
=38	=38	=38	=38	=38	=38	=38	=38	=38	=38	=38
.	.	1G,	-di	.	2.B-/	mi-	.	2.e-X\	mi-	.
2E-X\	-se-	.	.	.	.	.	.	.	.	.
.	.	.	.	.	4B-/	-ſe-	.	4e-\	-se-	.
2.D/	-re-	1d	mi-	.	2B-/	-re-	.	2.f\	-re-	.
.	.	.	.	.	1B-	-re	.	.	.	.
4E-\	-re	.	.	.	.	.	.	4g\	-re	.
=39	=39	=39	=39	=39	=39	=39	=39	=39	=39	=39
*	*	*lig	*	*	*	*	*	*	*	*
1F	no-	1c	-ſe-	.	.	.	.	1f	no-	.
.	.	.	.	.	2A/	no-	.	.	.	.
2BB-/	-bis	1B-	.	.	2B-/	-bis	.	1d	-bis	.
*	*	*	*	*	*	*ij	*	*	*	*
2D/	mi-	.	.	.	2F/	mi-	.	.	.	.
*	*	*Xlig	*	*	*	*	*	*	*	*
=40	=40	=40	=40	=40	=40	=40	=40	=40	=40	=40
*	*	*lig	*	*	*	*	*	*	*ij	*
2C/	-se-	1c	-re-	.	2G/	.	.	2.e\	mi-	.
2AA/	-re-	.	.	.	2A/	-ſe-	.	.	.	.
.	.	.	.	.	.	.	.	4f\	-se-	.
!	!	!	!	!	!	!	!	!LO:SIC:v:t=custos g	!	!
2GG/	-re	1G	.	.	2.B-/	-re-	.	2g\	-re-	.
!	!	!	!	!	!	!	!	!LO:LB:g=original	!	!
2.G\	mi-	.	.	.	.	.	.	2g\	-re	.
.	.	.	.	.	4c/	.	.	.	.	.
*	*	*Xlig	*	*	*	*	*	*	*	*
=41	=41	=41	=41	=41	=41	=41	=41	=41	=41	=41
*	*	*lig	*	*	*	*	*	*	*	*
.	.	1B-	.	.	2d\	-re	.	2g\	no-	.
4G\	-se-	.	.	.	.	.	.	.	.	.
*	*	*	*	*	*	*Xij	*	*	*	*
2G\	-re-	.	.	.	1d	mi-	.	2g\	-bis	.
2D/	-re	1A	.	.	.	.	.	2.f\	mi-	.
1D	no-	.	.	.	2d\	-ſe-	.	.	.	.
.	.	.	.	.	.	.	.	4f\	-se-	.
*	*	*Xlig	*	*	*	*	*	*	*	*
=42	=42	=42	=42	=42	=42	=42	=42	=42	=42	=42
.	.	1F	.	.	2A/	-re-	.	2f\	-re-	.
2AA/	-bis	.	.	.	2c/	-re	.	2f\	-re	.
1.BB-	mi-	1D	-re	.	2F/	no-	.	2f\	no-	.
.	.	.	.	.	2F/	-bis	.	2f\	-bis	.
=43	=43	=43	=43	=43	=43	=43	=43	=43	=43	=43
*	*	*lig	*	*	*	*ij	*	*	*Xij	*
.	.	1F	no-	.	2.B-/	mi-	.	2.d/	mi-	.
2FF/	-ſe-	.	.	.	.	.	.	.	.	.
.	.	.	.	.	4A/	-ſe-	.	4c/	-se-	.
2C/	-re-	1E	.	.	2G/	-re-	.	2c/	-re-	.
2C/	-re	.	.	.	2G/	-re	.	2c/	-re	.
*	*	*Xlig	*	*	*	*	*	*	*	*
=44	=44	=44	=44	=44	=44	=44	=44	=44	=44	=44
1D	no-	1F	.	.	2f\	no-	.	1A	no-	.
!	!	!	!	!	!LO:SIC:v:t=custos d	!	!	!	!	!
.	.	.	.	.	2f\	-bis	.	.	.	.
*	*	*	*	*	*	*Xij	*	*	*	*
!	!	!	!	!	!	!	!	!LO:N:acc=#	!	!
!LO:SIC:v:t=custos E-	!	!	!	!	!	!	!	!LO:TX:t=P:problem=# below	!	!
!	!	!	!	!	!LO:LB:g=original	!	!	!	!	!
1GG	-bis	[1Gl	-bis	.	2.d\	mi-	.	1Bn	-bis	.
.	.	.	.	.	4c/	-ſe-	.	.	.	.
!LO:LB:g=original	!	!	!	!	!	!	!	!	!	!
=45	=45	=45	=45	=45	=45	=45	=45	=45	=45	=45
*	*	*	*	*	*	*	*	*	*ij	*
2r	.	0G_	.	.	4B-/	-re-	.	4.d/	mi-	.
.	.	.	.	.	4G/	-re	.	.	.	.
.	.	.	.	.	.	.	.	8c/	-se-	.
1E-X	mi-	.	.	.	1e-X	mi-	.	4B-/	-re-	.
.	.	.	.	.	.	.	.	4G/	-re	.
*	*	*	*	*	*	*	*	*	*Xij	*
.	.	.	.	.	.	.	.	2.g\	mi-	.
2BB-/	-se-	.	.	.	2d\	-ſe-	.	.	.	.
.	.	.	.	.	.	.	.	4f\	se -	.
=46	=46	=46	=46	=46	=46	=46	=46	=46	=46	=46
2C/	-re-	0G_	.	.	2c/	-re-	.	2e-X\	-re-	.
!	!	!	!	!	!LO:N:acc=#	!	!	!	!	!
2GG/	-re	.	.	.	2Bn/	-re	.	2d\	-re	.
1C	no-	.	.	.	1c	no-	.	1e-X	no-	.
=47	=47	=47	=47	=47	=47	=47	=47	=47	=47	=47
!	!	!	!	!	!LO:N:acc=#	!	!	!	!	!
0GG	-bis	0G]	.	.	0Bn	-bis	.	0d	-bis	.
==	==	==	==	==	==	==	==	==	==	==
*-	*-	*-	*-	*-	*-	*-	*-	*-	*-	*-
!!!system-decoration: [(s1,s2,s3,s4)]
!!!RDF**kern: l = terminal long
!!!ENC: Mateusz Solarz
!!!END: 2022-03-17
!!!AIN: 1 alto 1 bass 1 soprn 1 tenor
!!!ENC: Jan Barakat
!!!END: 2022-03-20
